img/icons/Header/ios-chatboxes.svg

<svg width="35" height="35" viewBox="0 0 35 35" fill="none" xmlns="http://www.w3.org/2000/svg">
<g clip-path="url(#clip0_362_775)">
<path d="M2.91667 8.02083V5.82313C2.91934 5.44013 3.07256 5.07357 3.34325 4.80261C3.61393 4.53165 3.98035 4.37805 4.36333 4.375H30.6367C31.4358 4.375 32.0833 5.02396 32.0833 5.82313V29.1769C32.0807 29.5599 31.9274 29.9264 31.6568 30.1974C31.3861 30.4683 31.0197 30.6219 30.6367 30.625H4.36333C3.97952 30.6246 3.61156 30.4719 3.3403 30.2003C3.06904 29.9288 2.91667 29.5607 2.91667 29.1769V27.7083H29.1667V10.6458L17.5 21.1458L2.91667 8.02083ZM0 14.5833H7.29167V17.5H0V14.5833ZM0 21.875H11.6667V24.7917H0V21.875Z" fill="#721BE3"/>
</g>
<defs>
<clipPath id="clip0_362_775">
<rect width="35" height="35" fill="white"/>
</clipPath>
</defs>
</svg>

<svg width="35" height="35" fill="none" xmlns="http://www.w3.org/2000/svg"><g clip-path="url(#a)"><path d="M2.917 8.02V5.824a1.458 1.458 0 0 1 1.446-1.448h26.274c.799 0 1.446.649 1.446 1.448v23.354a1.458 1.458 0 0 1-1.446 1.448H4.363a1.448 1.448 0 0 1-1.446-1.448v-1.469h26.25V10.646L17.5 21.146 2.917 8.02ZM0 14.584h7.292V17.5H0v-2.917Zm0 7.292h11.667v2.917H0v-2.917Z" fill="#721BE3"/></g><defs><clipPath id="a"><path fill="#fff" d="M0 0h35v35H0z"/></clipPath></defs></svg>
